X:0741
T:Mrs. McReady's Strathspey.
M:C
L:1/8
Q:1/4=120
I: :: ||
N:bar 5 is printed |g>abb c'b bage|
Z:Jack Campin * www.campin.me.uk * 2009
K:G
g|dBBG  AGAB        |d>BBg f2 e>g|dBBG     AGAB        |dD F/E/D/E/  G2G :|
d|g>abb c'b b/a/g/e/|g>abb c'2ba |g>abb    c'b ab/c'/  |d'de>f       g2g>d|
  g>abb c'b b/a/g/e/|g>abb c'2bc'|d'>bc'>a b>g g/f/e/f/|f>d e/d/B/d/ e2e |]
<end>
<start>
